; HEADER_BLOCK_START
; BambuStudio 01.09.07.52
; estimated printing time (normal mode) = 34s
; total layer number: 5
; total filament length [mm] : 19.37
; total filament volume [cm^3] : 46.58
; total filament weight [g] : 0.00
; filament_density: 0
; filament_diameter: 1.75
; max_z_height: 1.00
; HEADER_BLOCK_END

; CONFIG_BLOCK_START
; accel_to_decel_enable = 0
; accel_to_decel_factor = 50%
; activate_air_filtration = 0
; additional_cooling_fan_speed = 0
; auxiliary_fan = 0
; bed_custom_model = 
; bed_custom_texture = 
; bed_exclude_area = 0x0
; before_layer_change_gcode = 
; best_object_pos = 0.5,0.5
; bottom_shell_layers = 3
; bottom_shell_thickness = 0
; bottom_surface_pattern = zig-zag
; bridge_angle = 0
; bridge_flow = 1
; bridge_no_support = 0
; bridge_speed = 25
; brim_object_gap = 0
; brim_type = auto_brim
; brim_width = 0
; chamber_temperatures = 0
; change_filament_gcode = 
; close_fan_the_first_x_layers = 1
; complete_print_exhaust_fan_speed = 80
; cool_plate_temp = 35
; cool_plate_temp_initial_layer = 35
; curr_bed_type = Cool Plate
; default_acceleration = 500
; default_filament_colour = ""
; default_jerk = 0
; deretraction_speed = 0
; detect_narrow_internal_solid_infill = 1
; detect_overhang_wall = 1
; detect_thin_wall = 0
; different_settings_to_system = ;
; draft_shield = disabled
; during_print_exhaust_fan_speed = 60
; elefant_foot_compensation = 0
; enable_arc_fitting = 0
; enable_long_retraction_when_cut = 0
; enable_overhang_bridge_fan = 1
; enable_overhang_speed = 1
; enable_pressure_advance = 0
; enable_prime_tower = 0
; enable_support = 0
; enforce_support_layers = 0
; eng_plate_temp = 45
; eng_plate_temp_initial_layer = 45
; ensure_vertical_shell_thickness = 1
; exclude_object = 1
; extruder_clearance_height_to_lid = 120
; extruder_clearance_height_to_rod = 40
; extruder_clearance_max_radius = 68
; extruder_clearance_radius = 40
; extruder_colour = ""
; extruder_offset = 0x0
; extruder_type = DirectDrive
; fan_cooling_layer_time = 60
; fan_max_speed = 100
; fan_min_speed = 20
; filament_colour = #00AE42
; filament_cost = 0
; filament_density = 0
; filament_diameter = 1.75
; filament_end_gcode = " "
; filament_flow_ratio = 1
; filament_is_support = 0
; filament_max_volumetric_speed = 2
; filament_minimal_purge_on_wipe_tower = 15
; filament_notes = 
; filament_settings_id = ""
; filament_soluble = 0
; filament_start_gcode = " "
; filament_type = PLA
; filename_format = [input_filename_base].gcode
; filter_out_gap_fill = 0
; first_layer_print_sequence = 0
; flush_into_infill = 0
; flush_into_objects = 0
; flush_into_support = 1
; flush_multiplier = 1
; flush_volumes_matrix = 0,280,280,280,280,0,280,280,280,280,0,280,280,280,280,0
; flush_volumes_vector = 140,140,140,140,140,140,140,140
; full_fan_speed_layer = 0
; fuzzy_skin = none
; fuzzy_skin_point_distance = 0.8
; fuzzy_skin_thickness = 0.3
; gap_infill_speed = 30
; gcode_add_line_number = 0
; gcode_flavor = marlin
; has_scarf_joint_seam = 0
; head_wrap_detect_zone = 
; hot_plate_temp = 45
; hot_plate_temp_initial_layer = 45
; independent_support_layer_height = 1
; infill_combination = 0
; infill_direction = 45
; infill_jerk = 9
; infill_wall_overlap = 15%
; inherits_group = ;
; initial_layer_acceleration = 300
; initial_layer_flow_ratio = 1
; initial_layer_infill_speed = 60
; initial_layer_jerk = 9
; initial_layer_line_width = 0.4
; initial_layer_print_height = 0.2
; initial_layer_speed = 30
; inner_wall_acceleration = 0
; inner_wall_jerk = 9
; inner_wall_line_width = 0.4
; inner_wall_speed = 60
; interface_shells = 0
; internal_bridge_support_thickness = 0
; internal_solid_infill_line_width = 0.4
; internal_solid_infill_pattern = zig-zag
; internal_solid_infill_speed = 100
; ironing_direction = 45
; ironing_flow = 10%
; ironing_pattern = zig-zag
; ironing_spacing = 0.1
; ironing_speed = 20
; ironing_type = no ironing
; is_infill_first = 0
; layer_change_gcode = 
; layer_height = 0.2
; line_width = 0.4
; long_retractions_when_cut = 0
; machine_end_gcode = M104 S0 ; turn off temperature\nG28 X0  ; home X axis\nM84     ; disable motors\n
; machine_load_filament_time = 0
; machine_max_acceleration_e = 5000,5000
; machine_max_acceleration_extruding = 1500,1250
; machine_max_acceleration_retracting = 1500,1250
; machine_max_acceleration_travel = 1500,1250
; machine_max_acceleration_x = 1000,1000
; machine_max_acceleration_y = 1000,1000
; machine_max_acceleration_z = 500,200
; machine_max_jerk_e = 2.5,2.5
; machine_max_jerk_x = 10,10
; machine_max_jerk_y = 10,10
; machine_max_jerk_z = 0.2,0.4
; machine_max_speed_e = 120,120
; machine_max_speed_x = 500,200
; machine_max_speed_y = 500,200
; machine_max_speed_z = 12,12
; machine_min_extruding_rate = 0,0
; machine_min_travel_rate = 0,0
; machine_pause_gcode = 
; machine_start_gcode = G28 ; home all axes\nG1 Z5 F5000 ; lift nozzle\n
; machine_unload_filament_time = 0
; max_bridge_length = 10
; max_layer_height = 0
; max_travel_detour_distance = 0
; min_bead_width = 85%
; min_feature_size = 25%
; min_layer_height = 0.07
; minimum_sparse_infill_area = 15
; mmu_segmented_region_interlocking_depth = 0
; mmu_segmented_region_max_width = 0
; nozzle_diameter = 0.4
; nozzle_height = 4
; nozzle_temperature = 200
; nozzle_temperature_initial_layer = 200
; nozzle_temperature_range_high = 240
; nozzle_temperature_range_low = 190
; nozzle_type = undefine
; nozzle_volume = 0
; only_one_wall_first_layer = 0
; ooze_prevention = 0
; other_layers_print_sequence = 0
; other_layers_print_sequence_nums = 0
; outer_wall_acceleration = 500
; outer_wall_jerk = 9
; outer_wall_line_width = 0
; outer_wall_speed = 60
; overhang_1_4_speed = 0
; overhang_2_4_speed = 0
; overhang_3_4_speed = 0
; overhang_4_4_speed = 0
; overhang_fan_speed = 100
; overhang_fan_threshold = 95%
; overhang_totally_speed = 24
; post_process = 
; precise_z_height = 0
; pressure_advance = 0.02
; prime_tower_brim_width = 3
; prime_tower_width = 35
; prime_volume = 45
; print_compatible_printers = 
; print_flow_ratio = 1
; print_sequence = by layer
; print_settings_id = 
; printable_area = 0x0,200x0,200x200,0x200
; printable_height = 100
; printer_model = 
; printer_notes = 
; printer_settings_id = 
; printer_structure = undefine
; printer_technology = FFF
; printing_by_object_gcode = 
; process_notes = 
; raft_contact_distance = 0.1
; raft_expansion = 1.5
; raft_first_layer_density = 90%
; raft_first_layer_expansion = 2
; raft_layers = 0
; reduce_crossing_wall = 0
; reduce_fan_stop_start_freq = 0
; reduce_infill_retraction = 0
; required_nozzle_HRC = 0
; resolution = 0.01
; retract_before_wipe = 100%
; retract_length_toolchange = 10
; retract_lift_above = 0
; retract_lift_below = 0
; retract_restart_extra = 0
; retract_restart_extra_toolchange = 0
; retract_when_changing_layer = 0
; retraction_distances_when_cut = 18
; retraction_length = 0.8
; retraction_minimum_travel = 2
; retraction_speed = 30
; scan_first_layer = 0
; scarf_angle_threshold = 155
; seam_gap = 15%
; seam_position = aligned
; seam_slope_conditional = 1
; seam_slope_entire_loop = 0
; seam_slope_inner_walls = 1
; seam_slope_min_length = 10
; seam_slope_start_height = 50%
; seam_slope_steps = 10
; seam_slope_type = none
; silent_mode = 0
; single_extruder_multi_material = 0
; skirt_distance = 2
; skirt_height = 1
; skirt_loops = 1
; slice_closing_radius = 0.049
; slicing_mode = regular
; slow_down_for_layer_cooling = 1
; slow_down_layer_time = 5
; slow_down_min_speed = 10
; small_perimeter_speed = 50%
; small_perimeter_threshold = 0
; smooth_coefficient = 80
; smooth_speed_discontinuity_area = 1
; solid_infill_filament = 1
; sparse_infill_acceleration = 100%
; sparse_infill_anchor = 400%
; sparse_infill_anchor_max = 20
; sparse_infill_density = 20%
; sparse_infill_filament = 1
; sparse_infill_line_width = 0.4
; sparse_infill_pattern = cubic
; sparse_infill_speed = 100
; spiral_mode = 0
; spiral_mode_max_xy_smoothing = 200%
; spiral_mode_smooth = 0
; standby_temperature_delta = -5
; start_end_points = 30x-3,54x245
; support_air_filtration = 0
; support_angle = 0
; support_base_pattern = default
; support_base_pattern_spacing = 2.5
; support_bottom_interface_spacing = 0.5
; support_bottom_z_distance = 0.2
; support_chamber_temp_control = 0
; support_critical_regions_only = 0
; support_expansion = 0
; support_filament = 0
; support_interface_bottom_layers = 0
; support_interface_filament = 0
; support_interface_loop_pattern = 0
; support_interface_not_for_body = 1
; support_interface_pattern = auto
; support_interface_spacing = 0.5
; support_interface_speed = 80
; support_interface_top_layers = 3
; support_line_width = 0.4
; support_object_first_layer_gap = 0.2
; support_object_xy_distance = 0.35
; support_on_build_plate_only = 0
; support_remove_small_overhang = 1
; support_speed = 80
; support_style = default
; support_threshold_angle = 30
; support_top_z_distance = 0.2
; support_type = normal(auto)
; temperature_vitrification = 100
; template_custom_gcode = 
; textured_plate_temp = 45
; textured_plate_temp_initial_layer = 45
; thick_bridges = 0
; thumbnail_size = 50x50
; time_lapse_gcode = 
; timelapse_type = 0
; top_area_threshold = 100%
; top_one_wall_type = all top
; top_shell_layers = 4
; top_shell_thickness = 0.6
; top_solid_infill_flow_ratio = 1
; top_surface_acceleration = 500
; top_surface_jerk = 9
; top_surface_line_width = 0.4
; top_surface_pattern = zig-zag
; top_surface_speed = 100
; travel_jerk = 9
; travel_speed = 120
; travel_speed_z = 0
; tree_support_branch_angle = 40
; tree_support_branch_diameter = 5
; tree_support_branch_distance = 5
; tree_support_wall_count = 0
; use_firmware_retraction = 0
; use_relative_e_distances = 1
; wall_distribution_count = 1
; wall_filament = 1
; wall_generator = arachne
; wall_loops = 2
; wall_sequence = inner wall/outer wall
; wall_transition_angle = 10
; wall_transition_filter_deviation = 25%
; wall_transition_length = 100%
; wipe = 0
; wipe_distance = 2
; wipe_speed = 80%
; wipe_tower_no_sparse_layers = 0
; wipe_tower_rotation_angle = 0
; wipe_tower_x = 15
; wipe_tower_y = 220
; xy_contour_compensation = 0
; xy_hole_compensation = 0
; z_hop = 0.4
; z_hop_types = Spiral Lift
; CONFIG_BLOCK_END

; THUMBNAIL_BLOCK_START
; THUMBNAIL_BLOCK_END

; EXECUTABLE_BLOCK_START
M73 P0 R0
M201 X1000 Y1000 Z500 E5000
M203 X500 Y500 Z12 E120
M204 P1500 R1500 T1500
M205 X10.00 Y10.00 Z0.20 E2.50
M106 S0
M106 P2 S0
M190 S35 ; set bed temperature and wait for it to be reached
M104 S200 ; set nozzle temperature
; FEATURE: Custom
G28 ; home all axes
G1 Z5 F5000 ; lift nozzle
M109 S200 ; set nozzle temperature and wait for it to be reached
G90
G21
M83 ; use relative distances for extrusion
; CHANGE_LAYER
; Z_HEIGHT: 0.2
; LAYER_HEIGHT: 0.2
M106 S0
M106 P2 S0
M204 S300
G1 E-.8 F1800
M73 P1 R0
G1 X92.034 Y92.699 F7200
G1 Z.4
M73 P5 R0
G1 Z.2
M73 P6 R0
G1 E.8 F1800
; FEATURE: Skirt
; LINE_WIDTH: 0.4
G1 F1680.297
M73 P7 R0
G1 X93.079 Y91.83 E.04034
G1 X94 Y91.643 E.02791
G1 X106 Y91.643 E.3563
G1 X107.301 Y92.034 E.04034
M73 P8 R0
G1 X108.17 Y93.079 E.04034
G1 X108.357 Y94 E.02791
G1 X108.357 Y106 E.3563
M73 P9 R0
G1 X107.966 Y107.301 E.04034
M73 P10 R0
G1 X106.921 Y108.17 E.04034
G1 X106 Y108.357 E.02791
G1 X94 Y108.357 E.3563
G1 X92.699 Y107.966 E.04034
M73 P11 R0
G1 X91.83 Y106.921 E.04034
M73 P12 R0
G1 X91.643 Y106 E.02791
G1 X91.643 Y94 E.3563
G1 X92.017 Y92.757 E.03856
M73 P13 R0
G1 E-.8 F1800
G1 X105.8 Y94.2 F7200
M73 P14 R0
G1 E.8 F1800
; FEATURE: Outer wall
; LINE_WIDTH: 0.399999
M73 P15 R0
G1 F1680.3
G1 X105.8 Y94.582 E.01135
; LINE_WIDTH: 0.440486
G1 F1509.185
G1 X105.78 Y94.714 E.00442
; LINE_WIDTH: 0.480973
G1 F1369.699
G1 X105.76 Y94.846 E.00487
; LINE_WIDTH: 0.521459
G1 F1253.816
G1 X105.739 Y94.979 E.00532
G1 X105.739 Y105.021 E.39961
; LINE_WIDTH: 0.525084
G1 F1244.39
M73 P16 R0
G1 X105.737 Y105.105 E.00334
; LINE_WIDTH: 0.564324
G1 F1150.739
G1 X105.718 Y105.401 E.01289
; LINE_WIDTH: 0.603564
G1 F1070.198
G1 X105.698 Y105.698 E.01386
G1 X105.36 Y105.719 E.0158
; LINE_WIDTH: 0.562512
M73 P17 R0
G1 F1154.752
G1 X105.021 Y105.739 E.01465
; LINE_WIDTH: 0.52146
G1 F1253.814
G1 X94.979 Y105.739 E.39962
; LINE_WIDTH: 0.562512
G1 F1154.753
M73 P18 R0
G1 X94.64 Y105.719 E.01465
; LINE_WIDTH: 0.603563
G1 F1070.2
G1 X94.302 Y105.698 E.0158
G1 X94.281 Y105.36 E.0158
; LINE_WIDTH: 0.562512
G1 F1154.753
G1 X94.261 Y105.021 E.01465
; LINE_WIDTH: 0.52146
G1 F1253.814
G1 X94.261 Y94.979 E.39962
; LINE_WIDTH: 0.562512
G1 F1154.753
M73 P20 R0
G1 X94.281 Y94.64 E.01465
; LINE_WIDTH: 0.603563
G1 F1070.2
G1 X94.302 Y94.302 E.0158
G1 X94.64 Y94.281 E.0158
; LINE_WIDTH: 0.562512
G1 F1154.753
G1 X94.979 Y94.261 E.01465
; LINE_WIDTH: 0.52146
G1 F1253.814
G1 X105.021 Y94.261 E.39962
G1 X105.154 Y94.24 E.00532
; LINE_WIDTH: 0.480973
M73 P21 R0
G1 F1369.697
G1 X105.286 Y94.22 E.00487
; LINE_WIDTH: 0.440486
G1 F1509.183
G1 X105.418 Y94.2 E.00442
; LINE_WIDTH: 0.399999
G1 F1680.3
G1 X105.74 Y94.2 E.00956
G1 E-.8 F1800
M73 P22 R0
G1 X94.78 Y94.78 F7200
G1 E.8 F1800
; LINE_WIDTH: 0.603563
M73 P23 R0
G1 F1070.2
G1 X94.879 Y94.76 E.00472
; LINE_WIDTH: 0.562512
G1 F1154.753
G1 X94.979 Y94.739 E.00437
; LINE_WIDTH: 0.52146
G1 F1253.814
G1 X105.021 Y94.739 E.39962
G1 X105.261 Y94.979 E.01346
M73 P24 R0
G1 X105.261 Y105.021 E.39962
; LINE_WIDTH: 0.562512
G1 F1154.753
M73 P26 R0
G1 X105.24 Y105.121 E.00437
; LINE_WIDTH: 0.603564
G1 F1070.198
G1 X105.22 Y105.22 E.00472
G1 X105.121 Y105.24 E.00472
; LINE_WIDTH: 0.562512
G1 F1154.752
G1 X105.021 Y105.261 E.00437
; LINE_WIDTH: 0.52146
G1 F1253.814
G1 X94.979 Y105.261 E.39962
; LINE_WIDTH: 0.562512
G1 F1154.753
M73 P27 R0
G1 X94.879 Y105.24 E.00437
; LINE_WIDTH: 0.603563
G1 F1070.2
G1 X94.78 Y105.22 E.00472
G1 X94.76 Y105.121 E.00472
; LINE_WIDTH: 0.562512
G1 F1154.753
G1 X94.739 Y105.021 E.00437
; LINE_WIDTH: 0.52146
G1 F1253.814
G1 X94.739 Y94.979 E.39962
; LINE_WIDTH: 0.562512
G1 F1154.753
M73 P29 R0
G1 X94.76 Y94.879 E.00437
; LINE_WIDTH: 0.603563
G1 F1070.2
G1 X94.768 Y94.839 E.00192
G1 E-.8 F1800
G1 X105.43 Y94.551 F7200
G1 E.8 F1800
; FEATURE: Inner wall
; LINE_WIDTH: 0.44983
M73 P30 R0
G1 F1474.528
G1 X105.379 Y94.551 E.00172
G1 X105.354 Y94.595 E.00172
G1 X105.379 Y94.639 E.00172
G1 X105.43 Y94.639 E.00172
G1 X105.455 Y94.595 E.00172
; CHANGE_LAYER
; Z_HEIGHT: 0.4
; LAYER_HEIGHT: 0.2
M106 S252.45
M204 S500
G1 X105.8 Y94.2 Z.4 F7200
; FEATURE: Outer wall
; LINE_WIDTH: 0.399999
G1 F1086
G1 X105.8 Y94.582 E.01135
; LINE_WIDTH: 0.440486
G1 X105.78 Y94.714 E.00442
; LINE_WIDTH: 0.480973
G1 X105.76 Y94.846 E.00487
; LINE_WIDTH: 0.521459
G1 X105.739 Y94.979 E.00532
M73 P31 R0
G1 X105.739 Y105.021 E.39961
; LINE_WIDTH: 0.525084
G1 X105.737 Y105.105 E.00334
; LINE_WIDTH: 0.564324
M73 P32 R0
G1 X105.718 Y105.401 E.01289
; LINE_WIDTH: 0.603564
G1 F1070.198
G1 X105.698 Y105.698 E.01386
G1 X105.36 Y105.719 E.0158
; LINE_WIDTH: 0.562512
G1 F1086
G1 X105.021 Y105.739 E.01465
; LINE_WIDTH: 0.52146
G1 X94.979 Y105.739 E.39962
; LINE_WIDTH: 0.562512
G1 X94.64 Y105.719 E.01465
; LINE_WIDTH: 0.603563
M73 P34 R0
G1 F1070.2
G1 X94.302 Y105.698 E.0158
G1 X94.281 Y105.36 E.0158
; LINE_WIDTH: 0.562512
G1 F1086
G1 X94.261 Y105.021 E.01465
; LINE_WIDTH: 0.52146
G1 X94.261 Y94.979 E.39962
; LINE_WIDTH: 0.562512
G1 X94.281 Y94.64 E.01465
; LINE_WIDTH: 0.603563
M73 P36 R0
G1 F1070.2
G1 X94.302 Y94.302 E.0158
G1 X94.64 Y94.281 E.0158
; LINE_WIDTH: 0.562512
G1 F1086
G1 X94.979 Y94.261 E.01465
; LINE_WIDTH: 0.52146
G1 X105.021 Y94.261 E.39962
G1 X105.154 Y94.24 E.00532
; LINE_WIDTH: 0.480973
M73 P38 R0
G1 X105.286 Y94.22 E.00487
; LINE_WIDTH: 0.440486
G1 X105.418 Y94.2 E.00442
; LINE_WIDTH: 0.399999
G1 X105.74 Y94.2 E.00956
G1 X105.209 Y94.926 F7200
; LINE_WIDTH: 0.52146
G1 F1086
G1 X105.261 Y94.979 E.00293
G1 X105.261 Y105.021 E.39962
; LINE_WIDTH: 0.562512
G1 X105.24 Y105.121 E.00437
; LINE_WIDTH: 0.603564
M73 P40 R0
G1 F1070.198
G1 X105.22 Y105.22 E.00472
G1 X105.121 Y105.24 E.00472
; LINE_WIDTH: 0.562512
G1 F1086
G1 X105.021 Y105.261 E.00437
; LINE_WIDTH: 0.52146
G1 X94.979 Y105.261 E.39962
; LINE_WIDTH: 0.562512
