; HEADER_BLOCK_START
; BambuStudio 01.09.07.52
; estimated printing time (normal mode) = 16s
; total layer number: 2
; total filament length [mm] : 7.14
; total filament volume [cm^3] : 17.16
; total filament weight [g] : 0.00
; filament_density: 0
; filament_diameter: 1.75
; max_z_height: 0.40
; HEADER_BLOCK_END

; CONFIG_BLOCK_START
; accel_to_decel_enable = 0
; accel_to_decel_factor = 50%
; activate_air_filtration = 0
; additional_cooling_fan_speed = 0
; auxiliary_fan = 0
; bed_custom_model = 
; bed_custom_texture = 
; bed_exclude_area = 0x0
; before_layer_change_gcode = 
; best_object_pos = 0.5,0.5
; bottom_shell_layers = 3
; bottom_shell_thickness = 0
; bottom_surface_pattern = zig-zag
; bridge_angle = 0
; bridge_flow = 1
; bridge_no_support = 0
; bridge_speed = 25
; brim_object_gap = 0
; brim_type = auto_brim
; brim_width = 0
; chamber_temperatures = 0
; change_filament_gcode = 
; close_fan_the_first_x_layers = 1
; complete_print_exhaust_fan_speed = 80
; cool_plate_temp = 35
; cool_plate_temp_initial_layer = 35
; curr_bed_type = Cool Plate
; default_acceleration = 500
; default_filament_colour = ""
; default_jerk = 0
; deretraction_speed = 0
; detect_narrow_internal_solid_infill = 1
; detect_overhang_wall = 1
; detect_thin_wall = 0
; different_settings_to_system = ;
; draft_shield = disabled
; during_print_exhaust_fan_speed = 60
; elefant_foot_compensation = 0
; enable_arc_fitting = 0
; enable_long_retraction_when_cut = 0
; enable_overhang_bridge_fan = 1
; enable_overhang_speed = 1
; enable_pressure_advance = 0
; enable_prime_tower = 0
; enable_support = 0
; enforce_support_layers = 0
; eng_plate_temp = 45
; eng_plate_temp_initial_layer = 45
; ensure_vertical_shell_thickness = 1
; exclude_object = 1
; extruder_clearance_height_to_lid = 120
; extruder_clearance_height_to_rod = 40
; extruder_clearance_max_radius = 68
; extruder_clearance_radius = 40
; extruder_colour = ""
; extruder_offset = 0x0
; extruder_type = DirectDrive
; fan_cooling_layer_time = 60
; fan_max_speed = 100
; fan_min_speed = 20
; filament_colour = #00AE42
; filament_cost = 0
; filament_density = 0
; filament_diameter = 1.75
; filament_end_gcode = " "
; filament_flow_ratio = 1
; filament_is_support = 0
; filament_max_volumetric_speed = 2
; filament_minimal_purge_on_wipe_tower = 15
; filament_notes = 
; filament_settings_id = ""
; filament_soluble = 0
; filament_start_gcode = " "
; filament_type = PLA
; filename_format = [input_filename_base].gcode
; filter_out_gap_fill = 0
; first_layer_print_sequence = 0
; flush_into_infill = 0
; flush_into_objects = 0
; flush_into_support = 1
; flush_multiplier = 1
; flush_volumes_matrix = 0,280,280,280,280,0,280,280,280,280,0,280,280,280,280,0
; flush_volumes_vector = 140,140,140,140,140,140,140,140
; full_fan_speed_layer = 0
; fuzzy_skin = none
; fuzzy_skin_point_distance = 0.8
; fuzzy_skin_thickness = 0.3
; gap_infill_speed = 30
; gcode_add_line_number = 0
; gcode_flavor = marlin
; has_scarf_joint_seam = 0
; head_wrap_detect_zone = 
; hot_plate_temp = 45
; hot_plate_temp_initial_layer = 45
; independent_support_layer_height = 1
; infill_combination = 0
; infill_direction = 45
; infill_jerk = 9
; infill_wall_overlap = 15%
; inherits_group = ;
; initial_layer_acceleration = 300
; initial_layer_flow_ratio = 1
; initial_layer_infill_speed = 60
; initial_layer_jerk = 9
; initial_layer_line_width = 0.4
; initial_layer_print_height = 0.2
; initial_layer_speed = 30
; inner_wall_acceleration = 0
; inner_wall_jerk = 9
; inner_wall_line_width = 0.4
; inner_wall_speed = 60
; interface_shells = 0
; internal_bridge_support_thickness = 0
; internal_solid_infill_line_width = 0.4
; internal_solid_infill_pattern = zig-zag
; internal_solid_infill_speed = 100
; ironing_direction = 45
; ironing_flow = 10%
; ironing_pattern = zig-zag
; ironing_spacing = 0.1
; ironing_speed = 20
; ironing_type = no ironing
; is_infill_first = 0
; layer_change_gcode = 
; layer_height = 0.2
; line_width = 0.4
; long_retractions_when_cut = 0
; machine_end_gcode = M104 S0 ; turn off temperature\nG28 X0  ; home X axis\nM84     ; disable motors\n
; machine_load_filament_time = 0
; machine_max_acceleration_e = 5000,5000
; machine_max_acceleration_extruding = 1500,1250
; machine_max_acceleration_retracting = 1500,1250
; machine_max_acceleration_travel = 1500,1250
; machine_max_acceleration_x = 1000,1000
; machine_max_acceleration_y = 1000,1000
; machine_max_acceleration_z = 500,200
; machine_max_jerk_e = 2.5,2.5
; machine_max_jerk_x = 10,10
; machine_max_jerk_y = 10,10
; machine_max_jerk_z = 0.2,0.4
; machine_max_speed_e = 120,120
; machine_max_speed_x = 500,200
; machine_max_speed_y = 500,200
; machine_max_speed_z = 12,12
; machine_min_extruding_rate = 0,0
; machine_min_travel_rate = 0,0
; machine_pause_gcode = 
; machine_start_gcode = G28 ; home all axes\nG1 Z5 F5000 ; lift nozzle\n
; machine_unload_filament_time = 0
; max_bridge_length = 10
; max_layer_height = 0
; max_travel_detour_distance = 0
; min_bead_width = 85%
; min_feature_size = 25%
; min_layer_height = 0.07
; minimum_sparse_infill_area = 15
; mmu_segmented_region_interlocking_depth = 0
; mmu_segmented_region_max_width = 0
; nozzle_diameter = 0.4
; nozzle_height = 4
; nozzle_temperature = 200
; nozzle_temperature_initial_layer = 200
; nozzle_temperature_range_high = 240
; nozzle_temperature_range_low = 190
; nozzle_type = undefine
; nozzle_volume = 0
; only_one_wall_first_layer = 0
; ooze_prevention = 0
; other_layers_print_sequence = 0
; other_layers_print_sequence_nums = 0
; outer_wall_acceleration = 500
; outer_wall_jerk = 9
; outer_wall_line_width = 0
; outer_wall_speed = 60
; overhang_1_4_speed = 0
; overhang_2_4_speed = 0
; overhang_3_4_speed = 0
; overhang_4_4_speed = 0
; overhang_fan_speed = 100
; overhang_fan_threshold = 95%
; overhang_totally_speed = 24
; post_process = 
; precise_z_height = 0
; pressure_advance = 0.02
; prime_tower_brim_width = 3
; prime_tower_width = 35
; prime_volume = 45
; print_compatible_printers = 
; print_flow_ratio = 1
; print_sequence = by layer
; print_settings_id = 
; printable_area = 0x0,200x0,200x200,0x200
; printable_height = 100
; printer_model = 
; printer_notes = 
; printer_settings_id = 
; printer_structure = undefine
; printer_technology = FFF
; printing_by_object_gcode = 
; process_notes = 
; raft_contact_distance = 0.1
; raft_expansion = 1.5
; raft_first_layer_density = 90%
; raft_first_layer_expansion = 2
; raft_layers = 0
; reduce_crossing_wall = 0
; reduce_fan_stop_start_freq = 0
; reduce_infill_retraction = 0
; required_nozzle_HRC = 0
; resolution = 0.01
; retract_before_wipe = 100%
; retract_length_toolchange = 10
; retract_lift_above = 0
; retract_lift_below = 0
; retract_restart_extra = 0
; retract_restart_extra_toolchange = 0
; retract_when_changing_layer = 0
; retraction_distances_when_cut = 18
; retraction_length = 0.8
; retraction_minimum_travel = 2
; retraction_speed = 30
; scan_first_layer = 0
; scarf_angle_threshold = 155
; seam_gap = 15%
; seam_position = aligned
; seam_slope_conditional = 1
; seam_slope_entire_loop = 0
; seam_slope_inner_walls = 1
; seam_slope_min_length = 10
; seam_slope_start_height = 50%
; seam_slope_steps = 10
; seam_slope_type = none
; silent_mode = 0
; single_extruder_multi_material = 0
; skirt_distance = 2
; skirt_height = 1
; skirt_loops = 1
; slice_closing_radius = 0.049
; slicing_mode = regular
; slow_down_for_layer_cooling = 1
; slow_down_layer_time = 5
; slow_down_min_speed = 10
; small_perimeter_speed = 50%
; small_perimeter_threshold = 0
; smooth_coefficient = 80
; smooth_speed_discontinuity_area = 1
; solid_infill_filament = 1
; sparse_infill_acceleration = 100%
; sparse_infill_anchor = 400%
; sparse_infill_anchor_max = 20
; sparse_infill_density = 20%
; sparse_infill_filament = 1
; sparse_infill_line_width = 0.4
; sparse_infill_pattern = cubic
; sparse_infill_speed = 100
; spiral_mode = 0
; spiral_mode_max_xy_smoothing = 200%
; spiral_mode_smooth = 0
; standby_temperature_delta = -5
; start_end_points = 30x-3,54x245
; support_air_filtration = 0
; support_angle = 0
; support_base_pattern = default
; support_base_pattern_spacing = 2.5
; support_bottom_interface_spacing = 0.5
; support_bottom_z_distance = 0.2
; support_chamber_temp_control = 0
; support_critical_regions_only = 0
; support_expansion = 0
; support_filament = 0
; support_interface_bottom_layers = 0
; support_interface_filament = 0
; support_interface_loop_pattern = 0
; support_interface_not_for_body = 1
; support_interface_pattern = auto
; support_interface_spacing = 0.5
; support_interface_speed = 80
; support_interface_top_layers = 3
; support_line_width = 0.4
; support_object_first_layer_gap = 0.2
; support_object_xy_distance = 0.35
; support_on_build_plate_only = 0
; support_remove_small_overhang = 1
; support_speed = 80
; support_style = default
; support_threshold_angle = 30
; support_top_z_distance = 0.2
; support_type = normal(auto)
; temperature_vitrification = 100
; template_custom_gcode = 
; textured_plate_temp = 45
; textured_plate_temp_initial_layer = 45
; thick_bridges = 0
; thumbnail_size = 50x50
; time_lapse_gcode = 
; timelapse_type = 0
; top_area_threshold = 100%
; top_one_wall_type = all top
; top_shell_layers = 4
; top_shell_thickness = 0.6
; top_solid_infill_flow_ratio = 1
; top_surface_acceleration = 500
; top_surface_jerk = 9
; top_surface_line_width = 0.4
; top_surface_pattern = zig-zag
; top_surface_speed = 100
; travel_jerk = 9
; travel_speed = 120
; travel_speed_z = 0
; tree_support_branch_angle = 40
; tree_support_branch_diameter = 5
; tree_support_branch_distance = 5
; tree_support_wall_count = 0
; use_firmware_retraction = 0
; use_relative_e_distances = 1
; wall_distribution_count = 1
; wall_filament = 1
; wall_generator = arachne
; wall_loops = 2
; wall_sequence = inner wall/outer wall
; wall_transition_angle = 10
; wall_transition_filter_deviation = 25%
; wall_transition_length = 100%
; wipe = 0
; wipe_distance = 2
; wipe_speed = 80%
; wipe_tower_no_sparse_layers = 0
; wipe_tower_rotation_angle = 0
; wipe_tower_x = 15
; wipe_tower_y = 220
; xy_contour_compensation = 0
; xy_hole_compensation = 0
; z_hop = 0.4
; z_hop_types = Spiral Lift
; CONFIG_BLOCK_END

; THUMBNAIL_BLOCK_START
; THUMBNAIL_BLOCK_END

; EXECUTABLE_BLOCK_START
M73 P0 R0
M201 X1000 Y1000 Z500 E5000
M203 X500 Y500 Z12 E120
M204 P1500 R1500 T1500
M205 X10.00 Y10.00 Z0.20 E2.50
M106 S0
M106 P2 S0
M190 S35 ; set bed temperature and wait for it to be reached
M104 S200 ; set nozzle temperature
; FEATURE: Custom
G28 ; home all axes
G1 Z5 F5000 ; lift nozzle
M109 S200 ; set nozzle temperature and wait for it to be reached
G90
G21
M83 ; use relative distances for extrusion
; CHANGE_LAYER
; Z_HEIGHT: 0.2
; LAYER_HEIGHT: 0.2
M106 S0
M106 P2 S0
M204 S300
G1 E-.8 F1800
M73 P2 R0
G1 X94.161 Y94.021 F7200
G1 Z.4
M73 P11 R0
G1 Z.2
M73 P14 R0
G1 E.8 F1800
; FEATURE: Skirt
; LINE_WIDTH: 0.4
G1 F1680.297
G1 X95.538 Y92.934 E.05207
G1 X96.959 Y92.216 E.04727
M73 P15 R0
G1 X98.453 Y91.788 E.04614
G1 X100.134 Y91.644 E.05009
G1 X101.781 Y91.835 E.04925
M73 P16 R0
G1 X103.385 Y92.359 E.05009
G1 X104.773 Y93.14 E.04727
G1 X105.96 Y94.142 E.04614
M73 P17 R0
G1 X107.015 Y95.459 E.05009
G1 X107.749 Y96.871 E.04727
G1 X108.231 Y98.558 E.05207
M73 P18 R0
G1 X108.355 Y100.145 E.04727
G1 X108.141 Y101.885 E.05207
G1 X107.636 Y103.395 E.04727
M73 P19 R0
G1 X106.759 Y104.914 E.05207
G1 X105.78 Y106.034 E.04417
M73 P20 R0
G1 X104.531 Y107.021 E.04727
G1 X102.966 Y107.812 E.05207
G1 X101.43 Y108.233 E.04727
M73 P21 R0
G1 X99.926 Y108.355 E.04479
G1 X98.205 Y108.161 E.05145
G1 X96.689 Y107.672 E.04727
M73 P22 R0
G1 X95.326 Y106.926 E.04614
G1 X94.03 Y105.846 E.05009
G1 X93.018 Y104.59 E.04789
M73 P23 R0
G1 X92.221 Y103.052 E.05145
G1 X91.783 Y101.521 E.04727
G1 X91.646 Y99.839 E.05009
M73 P24 R0
G1 X91.819 Y98.295 E.04614
G1 X92.291 Y96.774 E.04727
G1 X93.133 Y95.236 E.05207
M73 P25 R0
G1 X94.123 Y94.066 E.04549
G1 E-.8 F1800
M73 P26 R0
G1 X105.72 Y99.568 F7200
G1 E.8 F1800
; FEATURE: Outer wall
; LINE_WIDTH: 0.532846
M73 P28 R0
G1 F1224.675
G1 X105.732 Y100.074 E.0206
G1 X105.709 Y100.584 E.02081
; LINE_WIDTH: 0.533082
M73 P29 R0
G1 X105.628 Y101.089 E.02084
G1 X105.477 Y101.695 E.02546
; LINE_WIDTH: 0.532057
G1 F1226.65
G1 X105.246 Y102.311 E.02674
G1 X105.026 Y102.766 E.02055
; LINE_WIDTH: 0.533
G1 F1224.29
G1 X104.756 Y103.2 E.02083
G1 X104.457 Y103.614 E.02081
M73 P30 R0
G1 X104.113 Y103.992 E.02084
G1 X103.745 Y104.346 E.02082
; LINE_WIDTH: 0.532247
G1 F1226.174
G1 X103.34 Y104.659 E.0208
G1 X102.708 Y105.049 E.03025
; LINE_WIDTH: 0.532892
G1 F1224.56
G1 X102.223 Y105.283 E.02192
G1 X101.673 Y105.486 E.02389
; LINE_WIDTH: 0.531609
M73 P31 R0
G1 F1227.775
G1 X101.002 Y105.644 E.02802
G1 X100.5 Y105.714 E.02058
; LINE_WIDTH: 0.532726
G1 F1224.975
G1 X99.989 Y105.732 E.02082
G1 X99.22 Y105.68 E.0314
; LINE_WIDTH: 0.530618
G1 F1230.27
G1 X98.722 Y105.589 E.0205
G1 X98.23 Y105.455 E.02072
; LINE_WIDTH: 0.532176
M73 P32 R0
G1 F1226.352
G1 X97.752 Y105.273 E.02079
G1 X97.29 Y105.056 E.02078
; LINE_WIDTH: 0.531882
G1 F1227.089
G1 X96.799 Y104.754 E.02342
G1 X96.238 Y104.327 E.02867
; LINE_WIDTH: 0.531186
G1 F1228.838
G1 X95.871 Y103.977 E.02057
G1 X95.532 Y103.596 E.02074
; LINE_WIDTH: 0.532443
M73 P33 R0
G1 F1225.683
G1 X95.232 Y103.182 E.02081
G1 X94.847 Y102.513 E.03139
; LINE_WIDTH: 0.530845
G1 F1229.697
G1 X94.645 Y102.05 E.02051
; LINE_WIDTH: 0.529841
G1 F1232.233
G1 X94.483 Y101.566 E.02068
; LINE_WIDTH: 0.53168
G1 F1227.596
G1 X94.367 Y101.068 E.02077
G1 X94.292 Y100.562 E.02077
; LINE_WIDTH: 0.529075
M73 P34 R0
G1 F1234.174
G1 X94.268 Y99.857 E.02853
; LINE_WIDTH: 0.530244
G1 F1231.214
G1 X94.311 Y99.286 E.02322
; LINE_WIDTH: 0.530497
G1 F1230.575
G1 X94.396 Y98.784 E.02064
G1 X94.525 Y98.29 E.02071
; LINE_WIDTH: 0.532054
G1 F1226.658
G1 X94.702 Y97.81 E.02079
G1 X95.043 Y97.118 E.03136
; LINE_WIDTH: 0.531464
M73 P35 R0
G1 F1228.139
G1 X95.315 Y96.692 E.02053
; LINE_WIDTH: 0.529559
G1 F1232.947
G1 X95.628 Y96.289 E.02067
; LINE_WIDTH: 0.531078
G1 F1229.11
G1 X95.976 Y95.915 E.02074
G1 X96.354 Y95.571 E.02074
; LINE_WIDTH: 0.526761
G1 F1240.077
G1 X96.982 Y95.122 E.03104
; LINE_WIDTH: 0.530968
G1 F1229.387
M73 P36 R0
G1 X97.424 Y94.877 E.02052
G1 X97.89 Y94.667 E.02073
; LINE_WIDTH: 0.529797
G1 F1232.344
G1 X98.372 Y94.5 E.02068
G1 X98.932 Y94.367 E.02331
G1 X99.632 Y94.274 E.02856
; LINE_WIDTH: 0.526746
G1 F1240.115
G1 X100.139 Y94.265 E.02039
G1 X100.674 Y94.302 E.02159
; LINE_WIDTH: 0.532315
M73 P37 R0
G1 F1226.004
G1 X101.216 Y94.398 E.02239
G1 X101.896 Y94.586 E.0287
G1 X102.365 Y94.777 E.02062
G1 X102.822 Y95.004 E.02079
; LINE_WIDTH: 0.533023
G1 F1224.232
G1 X103.253 Y95.279 E.02083
G1 X103.704 Y95.619 E.02301
; LINE_WIDTH: 0.532426
M73 P38 R0
G1 F1225.725
G1 X104.084 Y95.978 E.02125
G1 X104.55 Y96.507 E.0287
; LINE_WIDTH: 0.532618
G1 X104.838 Y96.924 E.02064
G1 X105.097 Y97.364 E.0208
; LINE_WIDTH: 0.533089
G1 F1224.068
G1 X105.307 Y97.83 E.02084
G1 X105.484 Y98.309 E.02082
; LINE_WIDTH: 0.532651
G1 F1225.162
M73 P39 R0
G1 X105.607 Y98.806 E.02083
G1 X105.711 Y99.509 E.02895
G1 X105.027 Y98.45 F7200
; LINE_WIDTH: 0.521964
G1 F1252.494
M73 P40 R0
G1 X105.229 Y99.453 E.04075
; LINE_WIDTH: 0.532846
G1 F1224.675
G1 X105.243 Y100.061 E.02478
G1 X105.234 Y100.522 E.01878
; LINE_WIDTH: 0.523042
G1 F1249.682
G1 X105.052 Y101.46 E.03815
; LINE_WIDTH: 0.532057
G1 F1226.65
G1 X104.8 Y102.111 E.02838
G1 X104.619 Y102.509 E.01778
; LINE_WIDTH: 0.524124
M73 P41 R0
G1 F1246.872
G1 X104.106 Y103.287 E.0373
G1 X103.424 Y103.988 E.03915
; LINE_WIDTH: 0.527482
G1 F1238.232
G1 X102.667 Y104.523 E.03732
; LINE_WIDTH: 0.532892
G1 F1224.56
M73 P42 R0
G1 X102.043 Y104.828 E.02831
G1 X101.574 Y105.018 E.02062
; LINE_WIDTH: 0.531609
G1 F1227.775
G1 X100.918 Y105.163 E.02729
G1 X100.486 Y105.232 E.0178
; LINE_WIDTH: 0.525451
G1 F1243.443
G1 X99.588 Y105.24 E.03603
; LINE_WIDTH: 0.530618
G1 F1230.27
M73 P43 R0
G1 X98.831 Y105.114 E.03112
G1 X98.403 Y105.002 E.01793
; LINE_WIDTH: 0.527612
G1 F1237.899
G1 X97.627 Y104.692 E.03367
; LINE_WIDTH: 0.531882
