; HEADER_BLOCK_START
; BambuStudio 01.09.07.52
; estimated printing time (normal mode) = 54s
; total layer number: 5
; total filament length [mm] : 32.97
; total filament volume [cm^3] : 79.30
; total filament weight [g] : 0.00
; filament_density: 0
; filament_diameter: 1.75
; max_z_height: 1.00
; HEADER_BLOCK_END

; CONFIG_BLOCK_START
; accel_to_decel_enable = 0
; accel_to_decel_factor = 50%
; activate_air_filtration = 0
; additional_cooling_fan_speed = 0
; auxiliary_fan = 0
; bed_custom_model = 
; bed_custom_texture = 
; bed_exclude_area = 0x0
; before_layer_change_gcode = 
; best_object_pos = 0.5,0.5
; bottom_shell_layers = 3
; bottom_shell_thickness = 0
; bottom_surface_pattern = zig-zag
; bridge_angle = 0
; bridge_flow = 1
; bridge_no_support = 0
; bridge_speed = 25
; brim_object_gap = 0
; brim_type = auto_brim
; brim_width = 0
; chamber_temperatures = 0
; change_filament_gcode = 
; close_fan_the_first_x_layers = 1
; complete_print_exhaust_fan_speed = 80
; cool_plate_temp = 35
; cool_plate_temp_initial_layer = 35
; curr_bed_type = Cool Plate
; default_acceleration = 500
; default_filament_colour = ""
; default_jerk = 0
; deretraction_speed = 0
; detect_narrow_internal_solid_infill = 1
; detect_overhang_wall = 1
; detect_thin_wall = 0
; different_settings_to_system = ;
; draft_shield = disabled
; during_print_exhaust_fan_speed = 60
; elefant_foot_compensation = 0
; enable_arc_fitting = 0
; enable_long_retraction_when_cut = 0
; enable_overhang_bridge_fan = 1
; enable_overhang_speed = 1
; enable_pressure_advance = 0
; enable_prime_tower = 0
; enable_support = 0
; enforce_support_layers = 0
; eng_plate_temp = 45
; eng_plate_temp_initial_layer = 45
; ensure_vertical_shell_thickness = 1
; exclude_object = 1
; extruder_clearance_height_to_lid = 120
; extruder_clearance_height_to_rod = 40
; extruder_clearance_max_radius = 68
; extruder_clearance_radius = 40
; extruder_colour = ""
; extruder_offset = 0x0
; extruder_type = DirectDrive
; fan_cooling_layer_time = 60
; fan_max_speed = 100
; fan_min_speed = 20
; filament_colour = #00AE42
; filament_cost = 0
; filament_density = 0
; filament_diameter = 1.75
; filament_end_gcode = " "
; filament_flow_ratio = 1
; filament_is_support = 0
; filament_max_volumetric_speed = 2
; filament_minimal_purge_on_wipe_tower = 15
; filament_notes = 
; filament_settings_id = ""
; filament_soluble = 0
; filament_start_gcode = " "
; filament_type = PLA
; filename_format = [input_filename_base].gcode
; filter_out_gap_fill = 0
; first_layer_print_sequence = 0
; flush_into_infill = 0
; flush_into_objects = 0
; flush_into_support = 1
; flush_multiplier = 1
; flush_volumes_matrix = 0,280,280,280,280,0,280,280,280,280,0,280,280,280,280,0
; flush_volumes_vector = 140,140,140,140,140,140,140,140
; full_fan_speed_layer = 0
; fuzzy_skin = none
; fuzzy_skin_point_distance = 0.8
; fuzzy_skin_thickness = 0.3
; gap_infill_speed = 30
; gcode_add_line_number = 0
; gcode_flavor = marlin
; has_scarf_joint_seam = 0
; head_wrap_detect_zone = 
; hot_plate_temp = 45
; hot_plate_temp_initial_layer = 45
; independent_support_layer_height = 1
; infill_combination = 0
; infill_direction = 45
; infill_jerk = 9
; infill_wall_overlap = 15%
; inherits_group = ;
; initial_layer_acceleration = 300
; initial_layer_flow_ratio = 1
; initial_layer_infill_speed = 60
; initial_layer_jerk = 9
; initial_layer_line_width = 0.4
; initial_layer_print_height = 0.2
; initial_layer_speed = 30
; inner_wall_acceleration = 0
; inner_wall_jerk = 9
; inner_wall_line_width = 0.4
; inner_wall_speed = 60
; interface_shells = 0
; internal_bridge_support_thickness = 0
; internal_solid_infill_line_width = 0.4
; internal_solid_infill_pattern = zig-zag
; internal_solid_infill_speed = 100
; ironing_direction = 45
; ironing_flow = 10%
; ironing_pattern = zig-zag
; ironing_spacing = 0.1
; ironing_speed = 20
; ironing_type = no ironing
; is_infill_first = 0
; layer_change_gcode = 
; layer_height = 0.2
; line_width = 0.4
; long_retractions_when_cut = 0
; machine_end_gcode = M104 S0 ; turn off temperature\nG28 X0  ; home X axis\nM84     ; disable motors\n
; machine_load_filament_time = 0
; machine_max_acceleration_e = 5000,5000
; machine_max_acceleration_extruding = 1500,1250
; machine_max_acceleration_retracting = 1500,1250
; machine_max_acceleration_travel = 1500,1250
; machine_max_acceleration_x = 1000,1000
; machine_max_acceleration_y = 1000,1000
; machine_max_acceleration_z = 500,200
; machine_max_jerk_e = 2.5,2.5
; machine_max_jerk_x = 10,10
; machine_max_jerk_y = 10,10
; machine_max_jerk_z = 0.2,0.4
; machine_max_speed_e = 120,120
; machine_max_speed_x = 500,200
; machine_max_speed_y = 500,200
; machine_max_speed_z = 12,12
; machine_min_extruding_rate = 0,0
; machine_min_travel_rate = 0,0
; machine_pause_gcode = 
; machine_start_gcode = G28 ; home all axes\nG1 Z5 F5000 ; lift nozzle\n
; machine_unload_filament_time = 0
; max_bridge_length = 10
; max_layer_height = 0
; max_travel_detour_distance = 0
; min_bead_width = 85%
; min_feature_size = 25%
; min_layer_height = 0.07
; minimum_sparse_infill_area = 15
; mmu_segmented_region_interlocking_depth = 0
; mmu_segmented_region_max_width = 0
; nozzle_diameter = 0.4
; nozzle_height = 4
; nozzle_temperature = 200
; nozzle_temperature_initial_layer = 200
; nozzle_temperature_range_high = 240
; nozzle_temperature_range_low = 190
; nozzle_type = undefine
; nozzle_volume = 0
; only_one_wall_first_layer = 0
; ooze_prevention = 0
; other_layers_print_sequence = 0
; other_layers_print_sequence_nums = 0
; outer_wall_acceleration = 500
; outer_wall_jerk = 9
; outer_wall_line_width = 0
; outer_wall_speed = 60
; overhang_1_4_speed = 0
; overhang_2_4_speed = 0
; overhang_3_4_speed = 0
; overhang_4_4_speed = 0
; overhang_fan_speed = 100
; overhang_fan_threshold = 95%
; overhang_totally_speed = 24
; post_process = 
; precise_z_height = 0
; pressure_advance = 0.02
; prime_tower_brim_width = 3
; prime_tower_width = 35
; prime_volume = 45
; print_compatible_printers = 
; print_flow_ratio = 1
; print_sequence = by layer
; print_settings_id = 
; printable_area = 0x0,200x0,200x200,0x200
; printable_height = 100
; printer_model = 
; printer_notes = 
; printer_settings_id = 
; printer_structure = undefine
; printer_technology = FFF
; printing_by_object_gcode = 
; process_notes = 
; raft_contact_distance = 0.1
; raft_expansion = 1.5
; raft_first_layer_density = 90%
; raft_first_layer_expansion = 2
; raft_layers = 0
; reduce_crossing_wall = 0
; reduce_fan_stop_start_freq = 0
; reduce_infill_retraction = 0
; required_nozzle_HRC = 0
; resolution = 0.01
; retract_before_wipe = 100%
; retract_length_toolchange = 10
; retract_lift_above = 0
; retract_lift_below = 0
; retract_restart_extra = 0
; retract_restart_extra_toolchange = 0
; retract_when_changing_layer = 0
; retraction_distances_when_cut = 18
; retraction_length = 0.8
; retraction_minimum_travel = 2
; retraction_speed = 30
; scan_first_layer = 0
; scarf_angle_threshold = 155
; seam_gap = 15%
; seam_position = aligned
; seam_slope_conditional = 1
; seam_slope_entire_loop = 0
; seam_slope_inner_walls = 1
; seam_slope_min_length = 10
; seam_slope_start_height = 50%
; seam_slope_steps = 10
; seam_slope_type = none
; silent_mode = 0
; single_extruder_multi_material = 0
; skirt_distance = 2
; skirt_height = 1
; skirt_loops = 1
; slice_closing_radius = 0.049
; slicing_mode = regular
; slow_down_for_layer_cooling = 1
; slow_down_layer_time = 5
; slow_down_min_speed = 10
; small_perimeter_speed = 50%
; small_perimeter_threshold = 0
; smooth_coefficient = 80
; smooth_speed_discontinuity_area = 1
; solid_infill_filament = 1
; sparse_infill_acceleration = 100%
; sparse_infill_anchor = 400%
; sparse_infill_anchor_max = 20
; sparse_infill_density = 20%
; sparse_infill_filament = 1
; sparse_infill_line_width = 0.4
; sparse_infill_pattern = cubic
; sparse_infill_speed = 100
; spiral_mode = 0
; spiral_mode_max_xy_smoothing = 200%
; spiral_mode_smooth = 0
; standby_temperature_delta = -5
; start_end_points = 30x-3,54x245
; support_air_filtration = 0
; support_angle = 0
; support_base_pattern = default
; support_base_pattern_spacing = 2.5
; support_bottom_interface_spacing = 0.5
; support_bottom_z_distance = 0.2
; support_chamber_temp_control = 0
; support_critical_regions_only = 0
; support_expansion = 0
; support_filament = 0
; support_interface_bottom_layers = 0
; support_interface_filament = 0
; support_interface_loop_pattern = 0
; support_interface_not_for_body = 1
; support_interface_pattern = auto
; support_interface_spacing = 0.5
; support_interface_speed = 80
; support_interface_top_layers = 3
; support_line_width = 0.4
; support_object_first_layer_gap = 0.2
; support_object_xy_distance = 0.35
; support_on_build_plate_only = 0
; support_remove_small_overhang = 1
; support_speed = 80
; support_style = default
; support_threshold_angle = 30
; support_top_z_distance = 0.2
; support_type = normal(auto)
; temperature_vitrification = 100
; template_custom_gcode = 
; textured_plate_temp = 45
; textured_plate_temp_initial_layer = 45
; thick_bridges = 0
; thumbnail_size = 50x50
; time_lapse_gcode = 
; timelapse_type = 0
; top_area_threshold = 100%
; top_one_wall_type = all top
; top_shell_layers = 4
; top_shell_thickness = 0.6
; top_solid_infill_flow_ratio = 1
; top_surface_acceleration = 500
; top_surface_jerk = 9
; top_surface_line_width = 0.4
; top_surface_pattern = zig-zag
; top_surface_speed = 100
; travel_jerk = 9
; travel_speed = 120
; travel_speed_z = 0
; tree_support_branch_angle = 40
; tree_support_branch_diameter = 5
; tree_support_branch_distance = 5
; tree_support_wall_count = 0
; use_firmware_retraction = 0
; use_relative_e_distances = 1
; wall_distribution_count = 1
; wall_filament = 1
; wall_generator = arachne
; wall_loops = 2
; wall_sequence = inner wall/outer wall
; wall_transition_angle = 10
; wall_transition_filter_deviation = 25%
; wall_transition_length = 100%
; wipe = 0
; wipe_distance = 2
; wipe_speed = 80%
; wipe_tower_no_sparse_layers = 0
; wipe_tower_rotation_angle = 0
; wipe_tower_x = 15
; wipe_tower_y = 220
; xy_contour_compensation = 0
; xy_hole_compensation = 0
; z_hop = 0.4
; z_hop_types = Spiral Lift
; CONFIG_BLOCK_END

; THUMBNAIL_BLOCK_START
; THUMBNAIL_BLOCK_END

; EXECUTABLE_BLOCK_START
M73 P0 R0
M201 X1000 Y1000 Z500 E5000
M203 X500 Y500 Z12 E120
M204 P1500 R1500 T1500
M205 X10.00 Y10.00 Z0.20 E2.50
M106 S0
M106 P2 S0
M190 S35 ; set bed temperature and wait for it to be reached
M104 S200 ; set nozzle temperature
; FEATURE: Custom
G28 ; home all axes
G1 Z5 F5000 ; lift nozzle
M109 S200 ; set nozzle temperature and wait for it to be reached
G90
G21
M83 ; use relative distances for extrusion
; CHANGE_LAYER
; Z_HEIGHT: 0.2
; LAYER_HEIGHT: 0.2
M106 S0
M106 P2 S0
M204 S300
G1 E-.8 F1800
G1 X75.881 Y84.881 F7200
G1 Z.4
M73 P3 R0
G1 Z.2
G1 E.8 F1800
; FEATURE: Skirt
; LINE_WIDTH: 0.4
M73 P4 R0
G1 F1680.297
G1 X77.242 Y84.055 E.04727
G1 X78.892 Y83.463 E.05207
G1 X79.992 Y83.271 E.03315
G1 X80.879 Y83.224 E.02638
G1 X113.677 Y83.261 E.97381
G1 X125.486 Y85.396 E.3563
M73 P6 R0
G1 X126.696 Y86.013 E.04034
M73 P7 R0
G1 X127.365 Y87.195 E.04034
G1 X127.386 Y88.135 E.02791
G1 X125.251 Y99.944 E.3563
G1 X124.634 Y101.154 E.04034
M73 P8 R0
G1 X124.055 Y101.597 E.02166
G1 X97.811 Y115.818 E.88628
G1 X96.799 Y116.267 E.03286
M73 P10 R0
G1 X95.987 Y116.518 E.02522
G1 X94.994 Y116.708 E.03003
G1 X93.88 Y116.776 E.03314
G1 X92.766 Y116.695 E.03315
G1 X91.912 Y116.53 E.02584
G1 X90.868 Y116.197 E.03252
G1 X89.859 Y115.72 E.03315
M73 P11 R0
G1 X88.869 Y115.072 E.03512
G1 X88.074 Y114.386 E.03116
G1 X87.351 Y113.579 E.03219
G1 X74.121 Y96.501 E.64143
G1 X73.31 Y95.13 E.04727
M73 P12 R0
G1 X72.801 Y93.733 E.04417
G1 X72.53 Y92 E.05207
G1 X72.602 Y90.41 E.04727
M73 P13 R0
G1 X73.028 Y88.709 E.05207
G1 X73.662 Y87.363 E.04417
G1 X74.593 Y86.071 E.04727
G1 X75.837 Y84.922 E.05029
G1 E-.8 F1800
G1 X124.171 Y88.506 F7200
G1 E.8 F1800
; FEATURE: Outer wall
; LINE_WIDTH: 0.525086
M73 P15 R0
G1 F1244.385
G1 X124.165 Y88.547 E.00167
; LINE_WIDTH: 0.521459
G1 F1253.816
G1 X122.378 Y98.43 E.39961
; LINE_WIDTH: 0.562511
G1 F1154.756
M73 P16 R0
G1 X122.34 Y98.524 E.00437
; LINE_WIDTH: 0.603562
G1 F1070.202
G1 X122.303 Y98.618 E.00472
G1 X122.201 Y98.62 E.00472
; LINE_WIDTH: 0.56251
G1 F1154.757
G1 X122.1 Y98.623 E.00437
; LINE_WIDTH: 0.521458
G1 F1253.819
G1 X112.218 Y96.836 E.39961
; LINE_WIDTH: 0.56251
G1 F1154.757
M73 P17 R0
G1 X112.124 Y96.798 E.00437
; LINE_WIDTH: 0.603563
G1 F1070.2
G1 X112.03 Y96.76 E.00472
G1 X112.027 Y96.659 E.00472
; LINE_WIDTH: 0.562511
G1 F1154.756
G1 X112.025 Y96.558 E.00437
; LINE_WIDTH: 0.521459
G1 F1253.816
G1 X113.811 Y86.675 E.39961
; LINE_WIDTH: 0.562511
G1 F1154.754
G1 X113.849 Y86.581 E.00437
; LINE_WIDTH: 0.603563
G1 F1070.2
G1 X113.887 Y86.487 E.00472
G1 X113.988 Y86.485 E.00472
; LINE_WIDTH: 0.562511
M73 P18 R0
G1 F1154.754
G1 X114.089 Y86.482 E.00437
; LINE_WIDTH: 0.521459
G1 F1253.816
G1 X123.972 Y88.269 E.39961
; LINE_WIDTH: 0.562511
G1 F1154.754
G1 X124.066 Y88.307 E.00437
; LINE_WIDTH: 0.603563
G1 F1070.2
G1 X124.16 Y88.345 E.00472
G1 X124.165 Y88.425 E.00376
; LINE_WIDTH: 0.564325
G1 F1150.738
G1 X124.167 Y88.446 E.0009
G1 E-.8 F1800
G1 X111.474 Y97.146 F7200
M73 P19 R0
G1 E.8 F1800
; LINE_WIDTH: 0.603563
G1 F1070.2
G1 X111.514 Y96.809 E.0158
; LINE_WIDTH: 0.562511
G1 F1154.756
G1 X111.554 Y96.473 E.01465
; LINE_WIDTH: 0.521459
G1 F1253.816
G1 X113.34 Y86.59 E.39961
; LINE_WIDTH: 0.562511
G1 F1154.754
M73 P20 R0
G1 X113.421 Y86.261 E.01465
; LINE_WIDTH: 0.603563
G1 F1070.2
G1 X113.501 Y85.931 E.0158
G1 X113.838 Y85.971 E.0158
; LINE_WIDTH: 0.562511
G1 F1154.754
G1 X114.174 Y86.011 E.01465
; LINE_WIDTH: 0.521459
G1 F1253.816
M73 P21 R0
G1 X124.057 Y87.798 E.39961
; LINE_WIDTH: 0.562511
G1 F1154.754
G1 X124.387 Y87.879 E.01465
; LINE_WIDTH: 0.603563
G1 F1070.2
G1 X124.716 Y87.959 E.0158
G1 X124.676 Y88.296 E.0158
; LINE_WIDTH: 0.562511
G1 F1154.756
M73 P22 R0
G1 X124.636 Y88.632 E.01465
; LINE_WIDTH: 0.521459
G1 F1253.816
G1 X122.849 Y98.515 E.39961
; LINE_WIDTH: 0.525081
G1 F1244.398
G1 X122.833 Y98.597 E.00334
; LINE_WIDTH: 0.564322
G1 F1150.745
G1 X122.76 Y98.885 E.01289
; LINE_WIDTH: 0.603562
G1 F1070.202
G1 X122.688 Y99.174 E.01386
G1 X122.352 Y99.134 E.0158
; LINE_WIDTH: 0.56251
G1 F1154.757
M73 P23 R0
G1 X122.015 Y99.094 E.01465
; LINE_WIDTH: 0.521458
G1 F1253.819
G1 X112.132 Y97.307 E.39961
; LINE_WIDTH: 0.56251
G1 F1154.757
G1 X111.803 Y97.226 E.01465
; LINE_WIDTH: 0.603563
G1 F1070.2
G1 X111.532 Y97.16 E.01301
G1 E-.8 F1800
M73 P24 R0
G1 X94.131 Y102.688 F7200
G1 E.8 F1800
; LINE_WIDTH: 0.529983
G1 F1231.874
M73 P25 R0
G1 X94.898 Y102.769 E.03124
; LINE_WIDTH: 0.530738
G1 F1229.967
G1 X95.392 Y102.877 E.0205
G1 X95.88 Y103.028 E.02072
; LINE_WIDTH: 0.532247
G1 F1226.174
G1 X96.352 Y103.225 E.02079
G1 X96.806 Y103.458 E.02078
; LINE_WIDTH: 0.533002
G1 F1224.285
G1 X97.234 Y103.738 E.02083
G1 X97.641 Y104.046 E.02081
; LINE_WIDTH: 0.532863
G1 X98.011 Y104.399 E.02084
G1 X98.516 Y104.982 E.03142
; LINE_WIDTH: 0.527137
G1 F1239.114
G1 X98.934 Y105.625 E.03084
; LINE_WIDTH: 0.53074
G1 F1229.962
G1 X99.159 Y106.077 E.02051
G1 X99.347 Y106.552 E.02072
; LINE_WIDTH: 0.529983
G1 F1231.874
G1 X99.492 Y107.042 E.02069
; LINE_WIDTH: 0.531768
G1 F1227.375
G1 X99.591 Y107.543 E.02077
G1 X99.65 Y108.051 E.02076
; LINE_WIDTH: 0.532809
G1 F1224.767
G1 X99.656 Y108.562 E.02082
G1 X99.626 Y109.072 E.02081
; LINE_WIDTH: 0.53309
G1 X99.54 Y109.576 E.02084
G1 X99.417 Y110.082 E.02124
; LINE_WIDTH: 0.532453
G1 F1225.658
G1 X99.246 Y110.553 E.0204
G1 X98.915 Y111.25 E.03138
; LINE_WIDTH: 0.533024
M73 P26 R0
G1 F1224.23
G1 X98.643 Y111.676 E.02061
G1 X98.34 Y112.086 E.02082
G1 X97.991 Y112.461 E.02084
G1 X97.51 Y112.893 E.02637
; LINE_WIDTH: 0.53233
G1 F1225.966
G1 X96.993 Y113.262 E.02583
G1 X96.557 Y113.518 E.02057
; LINE_WIDTH: 0.533071
G1 F1224.113
G1 X96.091 Y113.727 E.02084
G1 X95.612 Y113.905 E.02082
; LINE_WIDTH: 0.532765
G1 X95.115 Y114.027 E.02083
G1 X94.353 Y114.14 E.03141
G1 X93.847 Y114.152 E.0206
G1 X93.33 Y114.127 E.02108
