; HEADER_BLOCK_START
; BambuStudio 01.09.07.52
; estimated printing time (normal mode) = 26s
; total layer number: 2
; total filament length [mm] : 13.99
; total filament volume [cm^3] : 33.64
; total filament weight [g] : 0.00
; filament_density: 0
; filament_diameter: 1.75
; max_z_height: 0.40
; HEADER_BLOCK_END

; CONFIG_BLOCK_START
; accel_to_decel_enable = 0
; accel_to_decel_factor = 50%
; activate_air_filtration = 0
; additional_cooling_fan_speed = 0
; auxiliary_fan = 0
; bed_custom_model = 
; bed_custom_texture = 
; bed_exclude_area = 0x0
; before_layer_change_gcode = 
; best_object_pos = 0.5,0.5
; bottom_shell_layers = 3
; bottom_shell_thickness = 0
; bottom_surface_pattern = zig-zag
; bridge_angle = 0
; bridge_flow = 1
; bridge_no_support = 0
; bridge_speed = 25
; brim_object_gap = 0
; brim_type = auto_brim
; brim_width = 0
; chamber_temperatures = 0
; change_filament_gcode = 
; close_fan_the_first_x_layers = 1
; complete_print_exhaust_fan_speed = 80
; cool_plate_temp = 35
; cool_plate_temp_initial_layer = 35
; curr_bed_type = Cool Plate
; default_acceleration = 500
; default_filament_colour = ""
; default_jerk = 0
; deretraction_speed = 0
; detect_narrow_internal_solid_infill = 1
; detect_overhang_wall = 1
; detect_thin_wall = 0
; different_settings_to_system = ;
; draft_shield = disabled
; during_print_exhaust_fan_speed = 60
; elefant_foot_compensation = 0
; enable_arc_fitting = 0
; enable_long_retraction_when_cut = 0
; enable_overhang_bridge_fan = 1
; enable_overhang_speed = 1
; enable_pressure_advance = 0
; enable_prime_tower = 0
; enable_support = 0
; enforce_support_layers = 0
; eng_plate_temp = 45
; eng_plate_temp_initial_layer = 45
; ensure_vertical_shell_thickness = 1
; exclude_object = 1
; extruder_clearance_height_to_lid = 120
; extruder_clearance_height_to_rod = 40
; extruder_clearance_max_radius = 68
; extruder_clearance_radius = 40
; extruder_colour = ""
; extruder_offset = 0x0
; extruder_type = DirectDrive
; fan_cooling_layer_time = 60
; fan_max_speed = 100
; fan_min_speed = 20
; filament_colour = #00AE42
; filament_cost = 0
; filament_density = 0
; filament_diameter = 1.75
; filament_end_gcode = " "
; filament_flow_ratio = 1
; filament_is_support = 0
; filament_max_volumetric_speed = 2
; filament_minimal_purge_on_wipe_tower = 15
; filament_notes = 
; filament_settings_id = ""
; filament_soluble = 0
; filament_start_gcode = " "
; filament_type = PLA
; filename_format = [input_filename_base].gcode
; filter_out_gap_fill = 0
; first_layer_print_sequence = 0
; flush_into_infill = 0
; flush_into_objects = 0
; flush_into_support = 1
; flush_multiplier = 1
; flush_volumes_matrix = 0,280,280,280,280,0,280,280,280,280,0,280,280,280,280,0
; flush_volumes_vector = 140,140,140,140,140,140,140,140
; full_fan_speed_layer = 0
; fuzzy_skin = none
; fuzzy_skin_point_distance = 0.8
; fuzzy_skin_thickness = 0.3
; gap_infill_speed = 30
; gcode_add_line_number = 0
; gcode_flavor = marlin
; has_scarf_joint_seam = 0
; head_wrap_detect_zone = 
; hot_plate_temp = 45
; hot_plate_temp_initial_layer = 45
; independent_support_layer_height = 1
; infill_combination = 0
; infill_direction = 45
; infill_jerk = 9
; infill_wall_overlap = 15%
; inherits_group = ;
; initial_layer_acceleration = 300
; initial_layer_flow_ratio = 1
; initial_layer_infill_speed = 60
; initial_layer_jerk = 9
; initial_layer_line_width = 0.4
; initial_layer_print_height = 0.2
; initial_layer_speed = 30
; inner_wall_acceleration = 0
; inner_wall_jerk = 9
; inner_wall_line_width = 0.4
; inner_wall_speed = 60
; interface_shells = 0
; internal_bridge_support_thickness = 0
; internal_solid_infill_line_width = 0.4
; internal_solid_infill_pattern = zig-zag
; internal_solid_infill_speed = 100
; ironing_direction = 45
; ironing_flow = 10%
; ironing_pattern = zig-zag
; ironing_spacing = 0.1
; ironing_speed = 20
; ironing_type = no ironing
; is_infill_first = 0
; layer_change_gcode = 
; layer_height = 0.2
; line_width = 0.4
; long_retractions_when_cut = 0
; machine_end_gcode = M104 S0 ; turn off temperature\nG28 X0  ; home X axis\nM84     ; disable motors\n
; machine_load_filament_time = 0
; machine_max_acceleration_e = 5000,5000
; machine_max_acceleration_extruding = 1500,1250
; machine_max_acceleration_retracting = 1500,1250
; machine_max_acceleration_travel = 1500,1250
; machine_max_acceleration_x = 1000,1000
; machine_max_acceleration_y = 1000,1000
; machine_max_acceleration_z = 500,200
; machine_max_jerk_e = 2.5,2.5
; machine_max_jerk_x = 10,10
; machine_max_jerk_y = 10,10
; machine_max_jerk_z = 0.2,0.4
; machine_max_speed_e = 120,120
; machine_max_speed_x = 500,200
; machine_max_speed_y = 500,200
; machine_max_speed_z = 12,12
; machine_min_extruding_rate = 0,0
; machine_min_travel_rate = 0,0
; machine_pause_gcode = 
; machine_start_gcode = G28 ; home all axes\nG1 Z5 F5000 ; lift nozzle\n
; machine_unload_filament_time = 0
; max_bridge_length = 10
; max_layer_height = 0
; max_travel_detour_distance = 0
; min_bead_width = 85%
; min_feature_size = 25%
; min_layer_height = 0.07
; minimum_sparse_infill_area = 15
; mmu_segmented_region_interlocking_depth = 0
; mmu_segmented_region_max_width = 0
; nozzle_diameter = 0.4
; nozzle_height = 4
; nozzle_temperature = 200
; nozzle_temperature_initial_layer = 200
; nozzle_temperature_range_high = 240
; nozzle_temperature_range_low = 190
; nozzle_type = undefine
; nozzle_volume = 0
; only_one_wall_first_layer = 0
; ooze_prevention = 0
; other_layers_print_sequence = 0
; other_layers_print_sequence_nums = 0
; outer_wall_acceleration = 500
; outer_wall_jerk = 9
; outer_wall_line_width = 0
; outer_wall_speed = 60
; overhang_1_4_speed = 0
; overhang_2_4_speed = 0
; overhang_3_4_speed = 0
; overhang_4_4_speed = 0
; overhang_fan_speed = 100
; overhang_fan_threshold = 95%
; overhang_totally_speed = 24
; post_process = 
; precise_z_height = 0
; pressure_advance = 0.02
; prime_tower_brim_width = 3
; prime_tower_width = 35
; prime_volume = 45
; print_compatible_printers = 
; print_flow_ratio = 1
; print_sequence = by layer
; print_settings_id = 
; printable_area = 0x0,200x0,200x200,0x200
; printable_height = 100
; printer_model = 
; printer_notes = 
; printer_settings_id = 
; printer_structure = undefine
; printer_technology = FFF
; printing_by_object_gcode = 
; process_notes = 
; raft_contact_distance = 0.1
; raft_expansion = 1.5
; raft_first_layer_density = 90%
; raft_first_layer_expansion = 2
; raft_layers = 0
; reduce_crossing_wall = 0
; reduce_fan_stop_start_freq = 0
; reduce_infill_retraction = 0
; required_nozzle_HRC = 0
; resolution = 0.01
; retract_before_wipe = 100%
; retract_length_toolchange = 10
; retract_lift_above = 0
; retract_lift_below = 0
; retract_restart_extra = 0
; retract_restart_extra_toolchange = 0
; retract_when_changing_layer = 0
; retraction_distances_when_cut = 18
; retraction_length = 0.8
; retraction_minimum_travel = 2
; retraction_speed = 30
; scan_first_layer = 0
; scarf_angle_threshold = 155
; seam_gap = 15%
; seam_position = aligned
; seam_slope_conditional = 1
; seam_slope_entire_loop = 0
; seam_slope_inner_walls = 1
; seam_slope_min_length = 10
; seam_slope_start_height = 50%
; seam_slope_steps = 10
; seam_slope_type = none
; silent_mode = 0
; single_extruder_multi_material = 0
; skirt_distance = 2
; skirt_height = 1
; skirt_loops = 1
; slice_closing_radius = 0.049
; slicing_mode = regular
; slow_down_for_layer_cooling = 1
; slow_down_layer_time = 5
; slow_down_min_speed = 10
; small_perimeter_speed = 50%
; small_perimeter_threshold = 0
; smooth_coefficient = 80
; smooth_speed_discontinuity_area = 1
; solid_infill_filament = 1
; sparse_infill_acceleration = 100%
; sparse_infill_anchor = 400%
; sparse_infill_anchor_max = 20
; sparse_infill_density = 20%
; sparse_infill_filament = 1
; sparse_infill_line_width = 0.4
; sparse_infill_pattern = cubic
; sparse_infill_speed = 100
; spiral_mode = 0
; spiral_mode_max_xy_smoothing = 200%
; spiral_mode_smooth = 0
; standby_temperature_delta = -5
; start_end_points = 30x-3,54x245
; support_air_filtration = 0
; support_angle = 0
; support_base_pattern = default
; support_base_pattern_spacing = 2.5
; support_bottom_interface_spacing = 0.5
; support_bottom_z_distance = 0.2
; support_chamber_temp_control = 0
; support_critical_regions_only = 0
; support_expansion = 0
; support_filament = 0
; support_interface_bottom_layers = 0
; support_interface_filament = 0
; support_interface_loop_pattern = 0
; support_interface_not_for_body = 1
; support_interface_pattern = auto
; support_interface_spacing = 0.5
; support_interface_speed = 80
; support_interface_top_layers = 3
; support_line_width = 0.4
; support_object_first_layer_gap = 0.2
; support_object_xy_distance = 0.35
; support_on_build_plate_only = 0
; support_remove_small_overhang = 1
; support_speed = 80
; support_style = default
; support_threshold_angle = 30
; support_top_z_distance = 0.2
; support_type = normal(auto)
; temperature_vitrification = 100
; template_custom_gcode = 
; textured_plate_temp = 45
; textured_plate_temp_initial_layer = 45
; thick_bridges = 0
; thumbnail_size = 50x50
; time_lapse_gcode = 
; timelapse_type = 0
; top_area_threshold = 100%
; top_one_wall_type = all top
; top_shell_layers = 4
; top_shell_thickness = 0.6
; top_solid_infill_flow_ratio = 1
; top_surface_acceleration = 500
; top_surface_jerk = 9
; top_surface_line_width = 0.4
; top_surface_pattern = zig-zag
; top_surface_speed = 100
; travel_jerk = 9
; travel_speed = 120
; travel_speed_z = 0
; tree_support_branch_angle = 40
; tree_support_branch_diameter = 5
; tree_support_branch_distance = 5
; tree_support_wall_count = 0
; use_firmware_retraction = 0
; use_relative_e_distances = 1
; wall_distribution_count = 1
; wall_filament = 1
; wall_generator = arachne
; wall_loops = 2
; wall_sequence = inner wall/outer wall
; wall_transition_angle = 10
; wall_transition_filter_deviation = 25%
; wall_transition_length = 100%
; wipe = 0
; wipe_distance = 2
; wipe_speed = 80%
; wipe_tower_no_sparse_layers = 0
; wipe_tower_rotation_angle = 0
; wipe_tower_x = 15
; wipe_tower_y = 220
; xy_contour_compensation = 0
; xy_hole_compensation = 0
; z_hop = 0.4
; z_hop_types = Spiral Lift
; CONFIG_BLOCK_END

; THUMBNAIL_BLOCK_START
; THUMBNAIL_BLOCK_END

; EXECUTABLE_BLOCK_START
M73 P0 R0
M201 X1000 Y1000 Z500 E5000
M203 X500 Y500 Z12 E120
M204 P1500 R1500 T1500
M205 X10.00 Y10.00 Z0.20 E2.50
M106 S0
M106 P2 S0
M190 S35 ; set bed temperature and wait for it to be reached
M104 S200 ; set nozzle temperature
; FEATURE: Custom
G28 ; home all axes
G1 Z5 F5000 ; lift nozzle
M109 S200 ; set nozzle temperature and wait for it to be reached
G90
G21
M83 ; use relative distances for extrusion
; CHANGE_LAYER
; Z_HEIGHT: 0.2
; LAYER_HEIGHT: 0.2
M106 S0
M106 P2 S0
M204 S300
G1 E-.8 F1800
M73 P1 R0
G1 X83.651 Y93.886 F7200
G1 Z.4
M73 P7 R0
G1 Z.2
M73 P8 R0
G1 E.8 F1800
; FEATURE: Skirt
; LINE_WIDTH: 0.4
G1 F1680.297
M73 P9 R0
G1 X84.825 Y92.973 E.04417
G1 X86.24 Y92.242 E.04727
G1 X87.665 Y91.814 E.04417
G1 X89.163 Y91.646 E.04476
G1 X110.801 Y91.646 E.64248
M73 P10 R0
G1 X112.194 Y91.787 E.04157
M73 P12 R0
G1 X113.626 Y92.191 E.04417
M73 P13 R0
G1 X114.963 Y92.842 E.04417
G1 X115.977 Y93.56 E.03688
G1 X117.021 Y94.59 E.04355
G1 X117.879 Y95.805 E.04417
G1 X118.508 Y97.153 E.04417
M73 P14 R0
G1 X118.87 Y98.488 E.04106
G1 X119.008 Y99.969 E.04417
G1 X118.923 Y101.187 E.03626
G1 X118.582 Y102.635 E.04417
G1 X117.989 Y103.999 E.04417
M73 P15 R0
G1 X117.163 Y105.237 E.04417
G1 X116.131 Y106.309 E.04417
G1 X114.926 Y107.18 E.04417
G1 X113.683 Y107.787 E.04106
G1 X112.255 Y108.201 E.04417
M73 P16 R0
G1 X110.775 Y108.356 E.04417
G1 X89.399 Y108.357 E.63469
G1 X88.252 Y108.284 E.03411
M73 P19 R0
G1 X87.158 Y108.065 E.03315
G1 X86.103 Y107.701 E.03315
G1 X85.105 Y107.199 E.03315
G1 X84.183 Y106.57 E.03315
M73 P20 R0
G1 X83.354 Y105.823 E.03315
G1 X82.631 Y104.972 E.03314
G1 X82.028 Y104.032 E.03315
G1 X81.556 Y103.021 E.03314
G1 X81.097 Y101.328 E.05207
G1 X80.995 Y99.739 E.04727
M73 P21 R0
G1 X81.233 Y98.002 E.05207
G1 X81.716 Y96.595 E.04417
G1 X82.5 Y95.209 E.04727
G1 X83.611 Y93.931 E.05029
G1 E-.8 F1800
M73 P22 R0
G1 X105.092 Y98.579 F7200
G1 E.8 F1800
; FEATURE: Outer wall
; LINE_WIDTH: 0.533093
M73 P24 R0
G1 F1224.058
G1 X105.244 Y98.095 E.02067
G1 X105.435 Y97.61 E.02124
; LINE_WIDTH: 0.532557
G1 F1225.398
G1 X105.668 Y97.166 E.02039
G1 X106.057 Y96.572 E.02894
; LINE_WIDTH: 0.532861
G1 F1224.637
M73 P25 R0
G1 X106.42 Y96.132 E.02323
G1 X106.774 Y95.77 E.02064
; LINE_WIDTH: 0.533024
G1 X107.169 Y95.446 E.02084
G1 X107.705 Y95.083 E.02637
; LINE_WIDTH: 0.532328
G1 F1225.971
G1 X108.267 Y94.787 E.02583
G1 X108.733 Y94.592 E.02057
; LINE_WIDTH: 0.533071
G1 F1224.113
G1 X109.223 Y94.448 E.02083
G1 X109.722 Y94.337 E.02082
; LINE_WIDTH: 0.53785
G1 F1212.293
G1 X110.231 Y94.285 E.02104
G1 X110.806 Y94.271 E.02368
; LINE_WIDTH: 0.533691
G1 F1222.566
M73 P26 R0
G1 X111.508 Y94.331 E.02878
; LINE_WIDTH: 0.531559
G1 F1227.9
G1 X112.006 Y94.427 E.02058
; LINE_WIDTH: 0.5297
G1 F1232.59
G1 X112.496 Y94.57 E.02068
; LINE_WIDTH: 0.53097
G1 F1229.382
G1 X112.972 Y94.757 E.02073
G1 X113.43 Y94.982 E.02073
; LINE_WIDTH: 0.532382
G1 F1225.836
G1 X113.864 Y95.252 E.0208
G1 X114.277 Y95.553 E.02079
; LINE_WIDTH: 0.529301
G1 F1233.601
G1 X114.839 Y96.082 E.03121
G1 X115.168 Y96.466 E.02045
; LINE_WIDTH: 0.528694
G1 F1235.142
M73 P27 R0
G1 X115.603 Y97.103 E.03115
; LINE_WIDTH: 0.532101
G1 F1226.54
G1 X115.836 Y97.552 E.02058
G1 X116.109 Y98.256 E.03071
; LINE_WIDTH: 0.53297
G1 F1224.365
G1 X116.249 Y98.764 E.02147
G1 X116.342 Y99.26 E.02059
; LINE_WIDTH: 0.532765
G1 X116.38 Y99.77 E.02082
G1 X116.381 Y100.281 E.02081
; LINE_WIDTH: 0.531679
G1 F1227.599
G1 X116.33 Y100.79 E.02077
G1 X116.239 Y101.292 E.02076
; LINE_WIDTH: 0.529597
G1 F1232.851
G1 X116.1 Y101.784 E.02068
G1 X115.815 Y102.501 E.03121
; LINE_WIDTH: 0.532506
M73 P28 R0
G1 F1225.525
G1 X115.571 Y102.944 E.02059
G1 X115.292 Y103.371 E.02079
; LINE_WIDTH: 0.53111
G1 F1229.03
G1 X114.971 Y103.77 E.02074
G1 X114.419 Y104.319 E.03162
; LINE_WIDTH: 0.532901
G1 F1224.537
G1 X114.027 Y104.633 E.02045
G1 X113.608 Y104.916 E.02064
; LINE_WIDTH: 0.532175
G1 F1226.354
G1 X113.157 Y105.157 E.0208
G1 X112.689 Y105.361 E.02078
; LINE_WIDTH: 0.530618
G1 F1230.27
M73 P29 R0
G1 X112.203 Y105.52 E.02072
G1 X111.705 Y105.636 E.02072
; LINE_WIDTH: 0.530109
G1 F1231.555
G1 X111.2 Y105.709 E.0207
; LINE_WIDTH: 0.531734
G1 F1227.461
G1 X110.689 Y105.733 E.02078
G1 X109.919 Y105.686 E.03134
G1 X109.421 Y105.601 E.02054
; LINE_WIDTH: 0.529978
G1 F1231.886
G1 X108.928 Y105.469 E.02069
; LINE_WIDTH: 0.530739
G1 F1229.964
G1 X108.448 Y105.293 E.02072
G1 X107.985 Y105.077 E.02073
; LINE_WIDTH: 0.527694
G1 F1237.69
G1 X107.382 Y104.711 E.02844
; LINE_WIDTH: 0.531281
G1 F1228.599
M73 P30 R0
G1 X106.928 Y104.36 E.02327
G1 X106.556 Y104.014 E.02067
; LINE_WIDTH: 0.529263
G1 F1233.697
G1 X106.215 Y103.633 E.02066
; LINE_WIDTH: 0.52941
G1 X105.874 Y103.169 E.02329
; LINE_WIDTH: 0.532206
G1 F1226.277
G1 X105.521 Y102.559 E.0287
G1 X105.313 Y102.097 E.02061
; LINE_WIDTH: 0.530654
G1 F1230.179
G1 X105.149 Y101.613 E.02072
G1 X104.989 Y100.887 E.03015
; LINE_WIDTH: 0.532782
G1 F1224.835
G1 X104.929 Y100.353 E.02189
G1 X104.92 Y99.772 E.02367
; LINE_WIDTH: 0.531909
M73 P31 R0
G1 F1227.022
G1 X104.966 Y99.273 E.02037
G1 X105.081 Y98.638 E.02624
G1 E-.8 F1800
G1 X111.111 Y94.763 F7200
G1 E.8 F1800
; LINE_WIDTH: 0.528799
M73 P32 R0
G1 F1234.875
G1 X111.895 Y94.9 E.03213
; LINE_WIDTH: 0.5297
G1 F1232.59
M73 P33 R0
G1 X112.319 Y95.024 E.01789
G1 X113.025 Y95.308 E.03082
; LINE_WIDTH: 0.532382
G1 F1225.836
G1 X113.587 Y95.654 E.02685
G1 X113.947 Y95.903 E.0178
; LINE_WIDTH: 0.529301
G1 F1233.601
G1 X114.486 Y96.416 E.03011
G1 X114.768 Y96.743 E.01745
; LINE_WIDTH: 0.528694
G1 F1235.142
G1 X115.193 Y97.354 E.03007
; LINE_WIDTH: 0.527837
G1 F1237.325
G1 X115.58 Y98.189 E.03713
; LINE_WIDTH: 0.53297
G1 F1224.365
G1 X115.769 Y98.86 E.02839
G1 X115.872 Y99.359 E.02076
; LINE_WIDTH: 0.525665
M73 P34 R0
G1 F1242.892
G1 X115.899 Y100.265 E.0364
